static/icons/basic/escape-key.svg

<svg width="21" height="20" viewBox="0 0 21 20" fill="none" xmlns="http://www.w3.org/2000/svg">
<rect x="1" y="0.5" width="19" height="19" rx="3.5" stroke="#858586"/>
<path d="M5.38984 12.5086C4.91748 12.5086 4.49937 12.4097 4.13552 12.2118C3.77805 12.0075 3.49719 11.7235 3.29292 11.3596C3.09504 10.9894 2.99609 10.5553 2.99609 10.0574V9.94253C2.99609 9.44463 3.09504 9.01376 3.29292 8.64991C3.4908 8.27968 3.76848 7.99562 4.12594 7.79773C4.48341 7.59347 4.89833 7.49133 5.37069 7.49133C5.83668 7.49133 6.24202 7.59666 6.58672 7.80731C6.93142 8.01158 7.19952 8.29883 7.39102 8.66906C7.58252 9.03291 7.67827 9.4574 7.67827 9.94253V10.3543H4.22169C4.23446 10.6798 4.35574 10.9447 4.58554 11.149C4.81534 11.3533 5.09621 11.4554 5.42814 11.4554C5.76646 11.4554 6.01541 11.382 6.17499 11.2352C6.33458 11.0883 6.45586 10.9256 6.53885 10.7468L7.52507 11.2639C7.4357 11.4299 7.30485 11.6118 7.1325 11.8097C6.96653 12.0012 6.74311 12.1671 6.46224 12.3076C6.18138 12.4416 5.82391 12.5086 5.38984 12.5086ZM4.23127 9.45421H6.45267C6.42714 9.17973 6.31543 8.9595 6.11754 8.79353C5.92604 8.62757 5.6739 8.54458 5.36112 8.54458C5.03557 8.54458 4.77704 8.62757 4.58554 8.79353C4.39404 8.9595 4.27595 9.17973 4.23127 9.45421Z" fill="#858586"/>
<path d="M10.533 12.5086C9.91386 12.5086 9.40638 12.3746 9.01062 12.1065C8.61485 11.8384 8.37548 11.4554 8.29249 10.9575L9.40319 10.6702C9.44788 10.8937 9.52128 11.0692 9.62342 11.1969C9.73193 11.3245 9.86279 11.4171 10.016 11.4745C10.1756 11.5256 10.3479 11.5511 10.533 11.5511C10.8139 11.5511 11.0214 11.5033 11.1554 11.4075C11.2895 11.3054 11.3565 11.1809 11.3565 11.0341C11.3565 10.8873 11.2927 10.7756 11.165 10.699C11.0373 10.616 10.8331 10.549 10.5522 10.4979L10.2841 10.45C9.95216 10.3862 9.64895 10.3 9.37447 10.1915C9.09998 10.0766 8.87976 9.92019 8.71379 9.72231C8.54783 9.52443 8.46484 9.26909 8.46484 8.95631C8.46484 8.48394 8.63719 8.12328 8.98189 7.87433C9.32659 7.619 9.77981 7.49133 10.3415 7.49133C10.8714 7.49133 11.3118 7.60942 11.6629 7.84561C12.014 8.08179 12.2438 8.39138 12.3523 8.77438L11.232 9.11908C11.181 8.87652 11.0756 8.70417 10.916 8.60203C10.7628 8.4999 10.5713 8.44883 10.3415 8.44883C10.1117 8.44883 9.9362 8.49033 9.81492 8.57331C9.69363 8.64991 9.63299 8.75843 9.63299 8.89886C9.63299 9.05206 9.69683 9.16696 9.82449 9.24356C9.95216 9.31378 10.1245 9.36803 10.3415 9.40633L10.6096 9.45421C10.9671 9.51804 11.2895 9.60422 11.5767 9.71273C11.8704 9.81487 12.1002 9.96488 12.2661 10.1628C12.4385 10.3543 12.5246 10.616 12.5246 10.9479C12.5246 11.4458 12.3427 11.832 11.9789 12.1065C11.6214 12.3746 11.1395 12.5086 10.533 12.5086Z" fill="#858586"/>
<path d="M15.6213 12.5086C15.1617 12.5086 14.7436 12.4129 14.367 12.2214C13.9968 12.0299 13.7031 11.7522 13.4861 11.3884C13.2691 11.0245 13.1606 10.5841 13.1606 10.067V9.93296C13.1606 9.41591 13.2691 8.97546 13.4861 8.61161C13.7031 8.24776 13.9968 7.97008 14.367 7.77858C14.7436 7.58708 15.1617 7.49133 15.6213 7.49133C16.0746 7.49133 16.4639 7.57112 16.7895 7.73071C17.115 7.89029 17.3768 8.11052 17.5746 8.39138C17.7789 8.66587 17.913 8.97865 17.9768 9.32973L16.8086 9.57868C16.7831 9.38718 16.7257 9.21483 16.6363 9.06163C16.5469 8.90843 16.4193 8.78715 16.2533 8.69778C16.0937 8.60842 15.8926 8.56373 15.6501 8.56373C15.4075 8.56373 15.1873 8.61799 14.9894 8.72651C14.7979 8.82864 14.6447 8.98503 14.5298 9.19568C14.4213 9.39995 14.367 9.65209 14.367 9.95211V10.0479C14.367 10.3479 14.4213 10.6032 14.5298 10.8139C14.6447 11.0181 14.7979 11.1745 14.9894 11.283C15.1873 11.3852 15.4075 11.4362 15.6501 11.4362C16.0139 11.4362 16.2884 11.3437 16.4735 11.1586C16.665 10.9671 16.7863 10.7181 16.8374 10.4117L18.0055 10.6894C17.9225 11.0277 17.7789 11.3373 17.5746 11.6182C17.3768 11.8926 17.115 12.1097 16.7895 12.2693C16.4639 12.4288 16.0746 12.5086 15.6213 12.5086Z" fill="#858586"/>
</svg>

<svg xmlns="http://www.w3.org/2000/svg" width="21" height="20" fill="none"><rect width="19" height="19" x="1" y=".5" stroke="#858586" rx="3.5"/><path fill="#858586" d="M5.39 12.509c-.473 0-.89-.1-1.254-.297a2.206 2.206 0 0 1-.843-.852c-.198-.37-.297-.805-.297-1.303v-.114c0-.498.099-.93.297-1.293.198-.37.475-.654.833-.852.357-.205.772-.307 1.245-.307.466 0 .871.106 1.216.316.344.205.613.492.804.862.192.364.287.788.287 1.274v.411H4.222c.012.326.134.59.364.795.23.204.51.306.842.306.338 0 .587-.073.747-.22.16-.147.28-.31.364-.488l.986.517a3.08 3.08 0 0 1-.393.546c-.165.191-.389.357-.67.498-.28.134-.638.2-1.072.2M4.23 9.454h2.222a.94.94 0 0 0-.335-.66c-.192-.166-.444-.25-.757-.25-.325 0-.584.084-.775.25a1.07 1.07 0 0 0-.355.66M10.533 12.509c-.62 0-1.127-.134-1.522-.402-.396-.269-.636-.652-.719-1.15l1.111-.287c.045.224.118.4.22.527.109.128.24.22.393.278.16.05.332.076.517.076.28 0 .488-.048.622-.143a.456.456 0 0 0 .202-.374.368.368 0 0 0-.192-.335c-.128-.083-.332-.15-.613-.201l-.268-.048a5.083 5.083 0 0 1-.91-.258 1.7 1.7 0 0 1-.66-.47c-.166-.198-.25-.453-.25-.766 0-.472.173-.833.518-1.082.345-.255.798-.383 1.36-.383.53 0 .97.118 1.32.355.352.236.582.545.69.928l-1.12.345c-.051-.242-.156-.415-.316-.517a1.014 1.014 0 0 0-.575-.153c-.23 0-.405.041-.526.124a.364.364 0 0 0-.182.326c0 .153.064.268.191.345.128.07.3.124.518.162l.268.048c.357.064.68.15.967.259.293.102.523.252.69.45.172.191.258.453.258.785 0 .498-.182.884-.546 1.159-.358.268-.84.402-1.446.402M15.621 12.509c-.46 0-.877-.096-1.254-.288a2.17 2.17 0 0 1-.88-.833c-.218-.364-.326-.804-.326-1.321v-.134c0-.517.108-.958.325-1.321.217-.364.51-.642.881-.833a2.727 2.727 0 0 1 1.254-.288c.454 0 .843.08 1.168.24.326.16.588.38.786.66.204.275.338.588.402.939l-1.168.249a1.374 1.374 0 0 0-.173-.517.958.958 0 0 0-.383-.364c-.16-.09-.36-.134-.603-.134-.242 0-.463.054-.66.163a1.124 1.124 0 0 0-.46.469c-.109.204-.163.456-.163.756v.096c0 .3.054.555.163.766.115.204.268.36.46.469.197.102.418.153.66.153.364 0 .638-.092.824-.277.191-.192.312-.44.363-.747l1.169.277a2.63 2.63 0 0 1-.431.93c-.198.274-.46.49-.785.65-.326.16-.715.24-1.169.24"/></svg>
